!! 00022] TT[TB
!! Zh. Ch. 1-5316 (610648) (J 4190)
!!!OTL: Amaleihuo
!!!ARE: Tibet, Lasa
!! Ethnic Group: Zang
!! II, 289 (2)
!!!SCT: C0235
!!!YEM: Copyright 1995, estate of Helmut Schaffrath.
**kern
*ICvox
*Ivox
!! Mixed meters:  4/4; 2/4
*M3/4
*k[f#c#]
*D:
{4a
4b
8.ee
16ff#
8dd
8cc#
=1
2.b
4a
=2
8b
8ee
16dd
16ee
16b
16dd
4a
4b}
=3
{4dd
8ee
16dd
16ee
8dd
8dd
16a
16b
16g
16a
=4
4e
8a
8g
8g
16a
16g}
{8e
8g
=5
4a
16b
16dd
16b
16a
4g
8a
8cc#
=6
4b
8a
16g
16a
4f#
16e
16f#
8d
=7
2e
8e
8f#
8B
8d
=8
8e
8r
2.r}
=9
{4.f#
8a
4b
4ee
=10
8dd
8ee
8b
8a
8f#
8a
8e
8f#}
=11
{4dd
8dd
16a
16b
8f#
8a
16e
16f#
16d
16e
=12
4B
8e
16d
16e
8d
16e
16d
8B
8d}
=13
{4e
16f#
16a
16e
16f#
4d
8e
8f#
=14
4b
8a
8g
4f#
16e
16f#
8d
=15
2e
8e
8f#
8B
8d
=16
8e
8r
2.r}
=17
{4.f#
8a
4b
4ee
=18
8dd
8ee
8b
8a
8f#
8a
8e
8f#}
=19
{4dd
8dd
16a
16b
8f#
8a
16e
16f#
16d
16e
=20
4B
8e
16d
16e
8d
16e
16d
8B
8d}
=21
{4e
16f#
16a
16e
16f#
4d
8e
8f#
=22
4b
8a
8g
4f#
16e
16f#
8d
=23
2e
8ee
8ff#
8b
8dd
=24
4ee
4r}
==
!! Nangma = antiker Tanz. Besonders typisch. Die auf Seite 293 oben
!!    angegebenen Instrumente werden zum Tanz eingesetzt. Nur ein Teil
!!    des letzten Tons ist abgeschnitten.
!!    Abschnitt 1 notiert. Vor-, Zwischen- und Nachspiel weggelassen.
!!    Abschnitt 2 instrumental, nicht notiert.
!!    Handschriftliche Korrektur in der Vorlage:in Phrase 5 bzw. 8 T.1
!!    statt 56 ist 65 eingetragen. Eine Verzierung.
!!!ONB: ESAC (Essen Associative Code) Database: CHINA_079
!!!AMT: irregular
!!!AIN: vox
!!!EED: Helmut Schaffrath
!!!EEV: 1.0
*-
